icons/1_Primary/XSplit.svg

<svg xmlns="http://www.w3.org/2000/svg" width="1024" height="1024" fill="none">
   <g clip-path="url(#a)">
      <path fill="#728DBE" d="M512 1024c282.77 0 512-229.23 512-512S794.77 0 512 0 0 229.23 0 512s229.23 512 512 512Z"/>
      <path fill="#fff" d="m745.45 475.09-92 65.92-112.35 80.53V461l204.35-147.5v161.59Zm-466.9 235.44L482.9 563V402.46L278.55 548.87v161.66Zm375-164L545 624.35 745.45 768V607.43l-88.09-63.6-1.24.89-2.57 1.81ZM278.55 256v160.57l88.1 63.57L479 399.65 278.55 256Z"/>
   </g>
   <defs>
      <clipPath id="a">
         <path fill="#fff" d="M0 0h1024v1024H0z"/>
      </clipPath>
   </defs>
</svg>

<svg width="1024" height="1024" viewBox="0 0 1024 1024" fill="none" xmlns="http://www.w3.org/2000/svg">
<g clip-path="url(#clip0_2_3990)">
<path d="M512 1024C794.77 1024 1024 794.77 1024 512C1024 229.23 794.77 0 512 0C229.23 0 0 229.23 0 512C0 794.77 229.23 1024 512 1024Z" fill="#728DBE"/>
<path d="M745.45 475.09L653.45 541.01L541.1 621.54V461L745.45 313.5V475.09ZM278.55 710.53L482.9 563V402.46L278.55 548.87V710.53ZM653.55 546.53L545 624.35L745.45 768V607.43L657.36 543.83L656.12 544.72L653.55 546.53ZM278.55 256V416.57L366.65 480.14L479 399.65L278.55 256Z" fill="white"/>
</g>
<defs>
<clipPath id="clip0_2_3990">
<rect width="1024" height="1024" fill="white"/>
</clipPath>
</defs>
</svg>
